!!!OTL: 619. Schlaf', Kindlein, ſchlaf'!
!!!COM: Volksweise
!!!ARE: Europa, Mitteleuropa, Deutschland
!!!SCT: B0619
!!!TXL: @@DE
!!!YEM: Copyright 1995, estate of Helmut Schaffrath.
**kern	**text
*ICvox	*
*Ivox	*
*clefG2	*
*M2/4	*
*k[b-]	*
*F:	*
=1	=1
!LO:TX:a:t=Sehr mäßig.	!
{4a	Schlaf',
8g	Kindlein,
8g	.
=2	=2
4f	ſchlaf'!
8r}	.
{16fL	Der
16aJ	.
=3	=3
8cc	Va-
8cc	-ter
8b-	hüt't
8b-	die
=4	=4
4a	Schaf',
8r}	.
{8a	die
=5	=5
8b-	Mut-
8b-	-ter
8g	ſchüt-
8g	-telt's
=6	=6
8cc	Bäu-
8cc	-me-
8a}	-lein,
{8a	da
=7	=7
8b-	fällt
8b-	her-
8g	-ab
8g	ein
=8	=8
8cc	Träu-
8cc	-me-
4a}	-lein.
=9	=9
{4b-	Schlaf',
8g	Kindlein,
8g	.
=10	=10
4f	ſchlaf'!
4r}	.
==	==
!!!AGN: Kinder -, Wiegen - Lied
!!!GTL: Kinderlieder
!!!ONB: ESAC (Essen Associative Code) Database: BOEHME
!!!AMT: simple duple
!!!AIN: vox
!!!EED: Helmut Schaffrath
!!!EEV: 1.0
!!@@COMMENT:"Aus: Des Knaben Wunderhorn". 1808. Die Anfangsſtrophe iſt uralter Volksreim, das
!!Weitere iſt Ʒudichtung von kunſtgeübter Dichterhand."
!!@@END:
!!!URL-scan: https://archive.org/details/BoehmeVtLieder1895/page/n489/mode/2up
!!!ENC: Anna Maria Matuszewska
!!!EEV: 2024/15/07
*-	*-
